X: 1
T:Shandy Hall   [G]
R:jig
M:6/8
L:1/8
K:G
   d |\
"G"d3 dcB | "D7"cBA "G"B2G | "(Bm)"d3 def | "C"gfe "D7"def |\
"G"g3 dcB | "D7"cBA "G"B2G | "C"cdc "G"B2G | "D7"ABA "G"G2 :|
|: B |\
"D"A2D ABc | "G"B2D GBd | "C"e2c "G"dcB | "D7"A3 "(C)"c2B |\
"D"A2D ABc | "G"B2D GBd | "C(Am)"e3 c3 | "D7"ABA "G"G2 :|
